X:1
T:You’ll Reap Whatsoever You Sow
T:Daniel Brink Towner
T:You’ll Reap Whatsoever You Sow
T:Public Domain
T:Public Domain
T:Public Domain
C:Daniel Brink Towner
Z:Public Domain
%%score 1 ( 2 3 )
L:1/8
M:6/8
K:Ab
V:1 treble 
V:2 bass 
V:3 bass 
V:1
 [CE] | [Ec][DB][CA] [Ec][DB][CA] | [DA] [DG]4 [DF] | [DE][Ed][Ed] [Ed][Ec][GB] | %4
w: 1.~Sow|flow- ers, and flow- ers will|blos- som A-|round you wher- ev- er you|
w: 2.~Sow|bless- ings, and bless- ings will|rip- en, Sow|ha- tred, and ha- tred will|
w: 3.~Sow|love, and its sweet- ness up-|ris- ing Shall|fill all your heart with its|
w: 4.~In|faith sow the word of the|Mas- ter, A|bless- ing He’ll sure- ly be-|
w: 5.~Preach|Christ in His won- der- ful|full- ness, That|all His sal- va- tion may|
 [Ac]3- [Ac]2 [CE] | [Ec][DB][CA] [Ec][DB][CA] | [DA] [DG]4 [DF] | [DE][Ed][Ed] [Ed][Ec]>[DB] | %8
w: go; * Sow|weeds, and of weeds reap the|har- vest, You’ll|reap what- so- ev- er you|
w: grow; * Sow|mer- cy and reap sweet com-|pass- ion, You’ll|reap what- so- ev- er you|
w: glow; * Sow|hope, and re- ceive its fru-|i- tion, You’ll|reap what- so- ev- er you|
w: stow; * And|souls shine like stars for your|crown- ing, You’ll|reap what- so- ev- er you|
w: know; * Reap|life thro’ the ag- es e-|ter- nal, You’ll|reap what- so- ev- er you|
 [CA]3- [CA]2 ||"^Refrain" [Ae] | [Ge]>[GB][GB] [GB][Ac][Bd] | [Ac]3- [Ac]2 [Ec] | %12
w: sow. *||||
w: sow. *|You’ll|reap what- so- ev- er you|sow, * You’ll|
w: sow. *||||
w: sow. *||||
w: sow. *||||
 [=Ec]>[EG][EG] [EG][FA][GB] | [FA]3- [FA]2 [FA] | [FA][=EG][FA] [FB][FA][DF] | [CE] [Ec]4 [Ae] | %16
w: ||||
w: reap what- so- ev- er you|sow, * The|har- vest is cer- tain- ly|com- ing, You’ll|
w: ||||
w: ||||
w: ||||
 [Ae]>[Ad][Ac] [GB][Gc]>[EB] | [EA]3- [EA]2 |] %18
w: ||
w: reap what- so- ev- er you|sow. *|
w: ||
w: ||
w: ||
V:2
 A, | A,A,A, A,A,A, | [E,B,] [E,B,]4 [E,A,] | [E,A,][E,B,][E,B,] [E,B,][E,A,][E,E] | %4
w: ~|~ ~ ~ ~ ~ ~|~ ~ ~|~ ~ ~ ~ ~ ~|
 [A,E]3- [A,E]2 A, | A,A,A, A,A,A, | [E,B,] [E,B,]4 [E,A,] | %7
w: ~ * ~|~ ~ ~ ~ ~ ~|reap what- so-|
 [E,G,][E,B,][E,B,] [E,B,][E,A,]>[E,G,] | [A,,A,]3- [A,,A,]2 || [A,C] | %10
w: ev- er you sow, You’ll reap,|sure- *|ly|
 [E,B,]>[E,E][E,E] [E,E][E,E][E,E] | [A,E][A,E][A,E] [A,E]2 A, | %12
w: reap what- so- ev- er you|sow, * * * *|
 [C,G,]>[C,C][C,C] [C,C][C,C][C,C] | [F,C][F,C][F,C] [F,C]2 [F,C] | %14
w: ||
 [D,D][D,D][D,D] [D,D][D,D][D,A,] | [A,,A,] [A,,A,]4 [A,C] | [E,C]>[E,B,][E,A,] [E,E][E,E]>[E,D] | %17
w: |||
 [A,,C]3- [A,,C]2 |] %18
w: |
V:3
 A, | A,A,A, A,A,A, | x6 | x6 | x5 A, | A,A,A, A,A,A, | x6 | x6 | x5 || x | x6 | x5 A, | x6 | x6 | %14
w: ~|~ ~ ~ ~ ~ ~|||~|~ ~ You’ll reap, sure- ly|||||||||
 x6 | x6 | x6 | x5 |] %18
w: ||||

